X:269
T:Asleep Beneath the Palms
M:4/4
C:Hank Laramee
R:Reel
K:Am
||:e2 g2 e2 d2 | c2 A2 Ac d2 | e2 g2 a2 e2 | d2 c(A A)G A2 |
  c2 d2 e4      | d2 e2 f4       | e2 c(d d)c A2 | c2 G2 A4        :||:
(aba)(g g)ee2  |  d2 e2 c2 A2 |  (aba)(g g)ee2  | c2 d2 e4   |
(aba)(g g)ee2  |  d2 e2 c2 A2 | e2 c(d d)c A2 | c2 G2 A4     :||
